X:333
T: ES WOLLTE EIN KUECHENJUNG
N: E0186E
O: Europa, Mitteleuropa, Deutschland, Magdeburg, Genthin
R: erzaehlendes Volks - Lied, Sage, Familien - Geschichte, Mord
M: 3/8
L: 1/8
K: C
G, | CCG, | CDE | DB,D | B,G,
C | A,B,C | G,G,E, | A,B,C | G,2
G, | CCG, | CDE | G,A,G, | C2

